assets/deepcool/mono.svg

<svg viewBox="0 0 24 24" xmlns="http://www.w3.org/2000/svg"><path d="m12 12v3.046h-8.954v-9.046h6v-6h2.954v9.046h-5.908v2.954zm8.954 3.046v2.954h-5.908v6h-3.046v-8.954z"/></svg>

<svg xmlns="http://www.w3.org/2000/svg" viewBox="0 0 24 24"><path d="M12 12v3.046H3.046V6h6V0H12v9.046H6.092V12zm8.954 3.046V18h-5.908v6H12v-8.954z"/></svg>
